frontend/public/svg/hand gestures/point-up.svg

<svg width="112" height="137" viewBox="0 0 112 137" fill="none" xmlns="http://www.w3.org/2000/svg">
<g clip-path="url(#clip0)">
<path d="M11.2468 119.455C8.08984 114.869 5.79296 109.748 4.46807 104.341C1.77708 93.249 0.491943 83.671 0.491943 74.609C0.491943 73.0206 0.531359 71.4448 0.61012 69.8833C0.850299 66.2663 1.64523 62.7075 2.96703 59.3319C4.95573 54.034 10.127 51.1862 15.8359 52.2436C17.2673 52.576 18.6515 53.0863 19.9563 53.7624C20.4748 54.0039 21.0064 54.2525 21.5433 54.477C28.0529 45.6958 33.0292 44.5329 41.7585 49.7692C43.3705 47.3893 45.3526 45.146 48.7078 44.4753C51.9462 43.8274 54.5184 45.1354 57.4535 46.9961C57.5356 45.7366 57.6078 44.502 57.6787 43.2917C57.8572 40.2529 58.0265 37.3848 58.312 34.4969L58.5595 31.9731C59.1449 25.9853 59.7501 19.7944 60.7254 13.762C61.196 10.8544 62.6018 8.08375 63.9618 5.4039L64.0366 5.25776C65.728 1.92226 68.244 0.32591 71.3097 0.641609C75.1723 1.03935 77.9637 3.02666 79.17 6.23747C79.9773 8.66421 80.5221 11.1708 80.7945 13.7139L80.9061 14.4866C81.0544 15.7389 81.1062 17.0008 81.0603 18.2611C81.0544 18.8124 81.0478 19.3636 81.0603 19.9123C81.1089 22.4715 81.164 25.0314 81.2257 27.5915C81.357 33.4592 81.4968 39.5269 81.5178 45.4969C81.5355 50.1208 81.4154 54.6951 81.2894 59.5428C81.2388 61.4993 81.187 63.4865 81.1437 65.5152L81.6635 65.1181C82.2443 64.6738 82.6979 64.3306 83.1632 63.9959C88.6869 60.0645 95.4512 58.2744 102.197 58.9586C106.534 59.3143 109.392 61.2349 110.691 64.6689C112.276 68.8627 111.717 72.5901 109.025 75.7503C108.426 76.4224 107.786 77.0545 107.106 77.6439C106.515 78.1598 105.952 78.7065 105.418 79.2808C104.509 80.2948 103.555 81.3056 102.632 82.2835C100.124 84.7855 97.8415 87.504 95.8108 90.407C93.7099 93.7688 91.8006 97.2467 90.0915 100.823C89.1214 102.76 88.1179 104.761 87.0658 106.695C84.5986 111.223 81.9464 116.04 79.025 120.721C77.7924 122.645 76.2257 124.333 74.3991 125.706C60.9918 135.935 46.3621 138.664 30.9158 133.818C22.9031 131.434 15.9567 126.361 11.2468 119.455ZM78.7966 79.5683C77.1144 79.5761 75.8805 78.5181 75.4112 76.6613C75.1657 75.6565 75.0436 74.626 75.0476 73.5916C75.0404 71.24 75.0607 66.5091 75.087 60.5212C75.1526 45.7037 75.2497 23.3127 74.9938 15.3598C74.9019 13.4718 74.68 11.5924 74.3282 9.73516C74.1786 8.90108 73.8471 8.11039 73.3575 7.41907C72.5988 6.37286 71.7311 5.8248 70.914 5.87468C70.1493 5.92194 69.4484 6.48163 68.8885 7.49501C67.6959 9.61144 66.8145 11.8883 66.2697 14.2555C65.5553 17.6455 65.0961 21.0842 64.8957 24.5428C64.6732 28.11 64.5545 31.7461 64.4363 35.2628C64.3569 37.7024 64.2748 40.2246 64.1587 42.7043C63.9618 46.8976 63.6782 51.4922 63.2674 57.1642C63.1013 59.4529 62.086 60.7903 60.4149 60.9314C58.1834 61.1204 57.3479 59.4273 56.6738 58.0667C56.4356 57.5843 56.2026 57.0959 55.9682 56.6069C55.1299 54.6711 54.0851 52.8316 52.8519 51.12C51.8812 49.8809 50.6381 49.2777 49.439 49.4654C48.2116 49.6577 47.1845 50.6468 46.6207 52.1734C46.1749 53.6114 45.9248 55.1028 45.877 56.6075C45.8396 57.0827 45.8022 57.5574 45.7543 58.026C45.7174 58.5612 45.7314 59.0987 45.7963 59.6313C45.8265 59.9791 45.8567 60.3275 45.8619 60.6747V60.7722C45.8619 62.4202 45.0829 63.4374 43.6035 63.7176C41.9436 64.032 40.7386 63.2359 40.2122 61.4756C40.1151 61.1514 40.0448 60.8194 39.9753 60.4847C39.8983 60.0554 39.7866 59.6328 39.6412 59.2217C39.4758 58.7937 39.313 58.362 39.1561 57.9295C38.6659 56.4751 38.051 55.0659 37.3184 53.7171C36.051 51.5512 34.546 51.0391 31.9528 51.8943C29.1805 52.8079 27.5121 54.6293 26.9922 57.3091C26.7283 58.8835 26.5769 60.4751 26.5394 62.0711L26.4967 62.9453C26.4153 64.491 26.3149 66.4146 24.1516 67.0421C21.9982 67.6669 20.9093 66.1783 20.0587 64.7342L19.8618 64.4022C19.2008 63.2792 18.5177 62.1175 17.7537 61.0503C16.0892 58.7243 14.5101 57.8624 12.4754 58.1695C10.2517 58.5043 9.35447 60.2476 8.48876 62.3204C6.44097 67.405 5.73054 72.9294 6.42527 78.3672C7.09076 84.4055 8.03858 90.9636 9.4077 99.0057C10.5344 105.064 13.0162 110.788 16.6674 115.752C20.0764 120.555 25.2654 124.087 32.0979 126.253C45.1374 130.383 57.8007 128.152 69.7372 119.624C70.9061 118.82 71.9241 117.815 72.7438 116.657C74.3939 114.193 76.523 110.927 78.3562 107.509C80.8877 102.789 83.3247 97.9346 85.5995 93.0809C89.8559 84.0012 95.1716 77.0118 101.852 71.7119C102.786 70.963 103.586 70.0619 104.221 69.0458C104.58 68.5162 104.785 67.8966 104.812 67.2567C104.812 67.0342 104.779 66.813 104.714 66.6003C104.533 66.1553 104.259 65.7543 103.91 65.4242C103.561 65.0942 103.145 64.8428 102.691 64.6871C99.208 63.1572 95.734 64.0583 93.0929 65.0153C86.4961 67.4057 82.9794 71.0628 82.0277 76.5248C81.6996 78.4525 80.5182 79.5617 78.7966 79.5683Z" fill="black"/>
</g>
<defs>
<clipPath id="clip0">
<rect width="111.577" height="136.518" fill="white" transform="translate(0.133057 0.0727539)"/>
</clipPath>
</defs>
</svg>

<svg xmlns="http://www.w3.org/2000/svg" width="112" height="137" fill="none" viewBox="0 0 112 137"><g clip-path="url(#a)"><path fill="#000" d="M11.247 119.455a45.9 45.9 0 0 1-6.779-15.114C1.778 93.249.492 83.671.492 74.609q0-2.382.118-4.726a35.4 35.4 0 0 1 2.357-10.551c1.989-5.298 7.16-8.146 12.869-7.088a17.6 17.6 0 0 1 4.12 1.518c.519.242 1.05.49 1.587.715 6.51-8.781 11.486-9.944 20.216-4.708 1.611-2.38 3.594-4.623 6.949-5.294 3.238-.648 5.81.66 8.746 2.521.082-1.26.154-2.494.225-3.704.178-3.04.347-5.907.633-8.795l.248-2.524c.585-5.988 1.19-12.179 2.165-18.211.471-2.908 1.877-5.678 3.237-8.358l.075-.146C65.728 1.922 68.244.326 71.31.642c3.862.397 6.654 2.385 7.86 5.595a35.8 35.8 0 0 1 1.624 7.477l.112.773c.148 1.252.2 2.514.154 3.774a51 51 0 0 0 0 1.651q.073 3.84.166 7.68c.131 5.867.27 11.935.292 17.905.017 4.624-.103 9.198-.229 14.046-.05 1.956-.102 3.944-.145 5.972l.52-.397c.58-.444 1.034-.787 1.5-1.122a27.96 27.96 0 0 1 19.033-5.037c4.337.355 7.195 2.276 8.494 5.71 1.585 4.194 1.026 7.921-1.666 11.081a21 21 0 0 1-1.919 1.894 23 23 0 0 0-1.688 1.637 161 161 0 0 1-2.786 3.002 60.3 60.3 0 0 0-6.821 8.124 106 106 0 0 0-5.72 10.416c-.97 1.937-1.973 3.938-3.025 5.872-2.467 4.528-5.12 9.345-8.041 14.026a19.2 19.2 0 0 1-4.626 4.985c-13.407 10.229-28.037 12.958-43.483 8.112a36.36 36.36 0 0 1-19.67-14.363m67.55-39.887c-1.683.008-2.916-1.05-3.386-2.907a12.7 12.7 0 0 1-.363-3.07c-.008-2.351.013-7.082.039-13.07.066-14.817.163-37.208-.093-45.161a41 41 0 0 0-.666-5.625 5.8 5.8 0 0 0-.97-2.316c-.76-1.046-1.627-1.594-2.444-1.544-.765.047-1.466.607-2.026 1.62a25.4 25.4 0 0 0-2.618 6.76 69 69 0 0 0-1.374 10.288c-.223 3.567-.341 7.203-.46 10.72-.08 2.44-.161 4.962-.277 7.441-.197 4.194-.48 8.788-.892 14.46-.166 2.289-1.181 3.626-2.852 3.767-2.232.19-3.067-1.504-3.741-2.864q-.355-.725-.706-1.46a29.3 29.3 0 0 0-3.116-5.487c-.97-1.24-2.214-1.842-3.413-1.655-1.227.193-2.254 1.182-2.818 2.708a16.8 16.8 0 0 0-.744 4.435c-.037.475-.075.95-.123 1.418a8.5 8.5 0 0 0 .042 1.605c.03.348.06.697.066 1.044v.097c0 1.648-.78 2.665-2.259 2.946-1.66.314-2.864-.482-3.39-2.242a12 12 0 0 1-.238-.991 8 8 0 0 0-.334-1.263q-.249-.643-.485-1.293a26.7 26.7 0 0 0-1.838-4.212c-1.267-2.166-2.772-2.678-5.365-1.823-2.773.914-4.44 2.735-4.96 5.415a33.6 33.6 0 0 0-.454 4.762l-.042.874c-.082 1.546-.182 3.47-2.345 4.097-2.154.625-3.243-.864-4.093-2.308l-.197-.332c-.661-1.123-1.344-2.285-2.108-3.352-1.665-2.326-3.244-3.188-5.279-2.88-2.223.334-3.12 2.078-3.986 4.15a32.1 32.1 0 0 0-2.064 16.047c.666 6.038 1.614 12.597 2.983 20.639a40.9 40.9 0 0 0 7.26 16.746c3.408 4.803 8.597 8.335 15.43 10.501 13.04 4.13 25.703 1.899 37.64-6.629a12 12 0 0 0 3.006-2.967c1.65-2.464 3.779-5.73 5.612-9.148A300 300 0 0 0 85.6 93.081c4.256-9.08 9.572-16.07 16.252-21.37a10.7 10.7 0 0 0 2.369-2.665c.359-.53.564-1.15.591-1.79q0-.335-.098-.656a3.36 3.36 0 0 0-2.023-1.913c-3.483-1.53-6.957-.629-9.598.328-6.597 2.39-10.114 6.048-11.065 11.51-.328 1.927-1.51 3.037-3.231 3.043"/></g><defs><clipPath id="a"><path fill="#fff" d="M.133.073H111.71V136.59H.133z"/></clipPath></defs></svg>
